!!!COM:	la Rue, Pierre de
!!!CDT:	~1452///-1518/11/20
!!!OPR:	Missa de septem doloribus
!!!ONM:	2
!!!OTL:	Gloria
!!!AGN:	Mass; Gloria
!!!SCT:	Rue1014b
!!!SCA:	Rue1014b
!!!voices-OPR:	5
!!!voices:	5
**kern	**kern	**kern	**kern	**kern
*staff5	*staff4	*staff3	*staff2	*staff1
*Ivox	*Ivox	*Ivox	*Ivox	*Ivox
*I"Bassus	*I"Tenor	*I"Tenor	*I"Contra	*I"Discantus
*I'B	*I'T	*I'T	*I'C	*I'D
*>[A,B]	*>[A,B]	*>[A,B]	*>[A,B]	*>[A,B]
*>A	*>A	*>A	*>A	*>A
*clefF4	*clefGv2	*clefGv2	*clefGv2	*clefG2
*k[]	*k[]	*k[]	*k[]	*k[]
*M2/1	*M2/1	*M2/1	*M2/1	*M2/1
*met(C2)	*met(C2)	*met(C2)	*met(C2)	*met(C2)
!!section: Et in terra pax
!!!OMD: Et in terra pax
=1-	=1-	=1-	=1-	=1-
0r	0r	0r	1.d	0r
.	.	.	2d\	.
=2.	=2.	=2.	=2.	=2.
0r	0r	0r	1f	1.a
.	.	.	1f	.
.	.	.	.	2a/
=3	=3	=3	=3	=3
0r	0r	0r	1e	1cc
.	.	.	1c	1cc
=4.	=4.	=4.	=4.	=4.
0r	0r	0r	1d	1b
.	.	.	1B	1g
=5	=5	=5	=5	=5
0r	0r	0r	0A	1a
.	.	.	.	1f
=6.	=6.	=6.	=6.	=6.
0r	0r	0r	2r	[0e
.	.	.	1c	.
.	.	.	4B\	.
.	.	.	4A/	.
=7	=7	=7	=7	=7
0r	0r	0r	2G/	0e]
.	.	.	1A	.
.	.	.	2G/	.
=8.	=8.	=8.	=8.	=8.
0r	0r	0r	2A/	2r
.	.	.	2.E/	1g
.	.	.	4F/	.
.	.	.	4G/	4f/
.	.	.	4A/	4e/
=9	=9	=9	=9	=9
0r	0r	0r	2B\	2d/
.	.	.	1c	1e
.	.	.	2B\	2d/
=10.	=10.	=10.	=10.	=10.
0r	0r	0r	2c\	2e/
.	.	.	2.e\	2.c/
.	.	.	4d\	4d/
.	.	.	[2c\	4e/
.	.	.	.	4f/
=11	=11	=11	=11	=11
0r	1r	0r	2c\]	2g/
.	.	.	4B\	1a
.	.	.	4A/	.
.	2r	.	1B	.
.	2E/	.	.	2g#i/
=12.	=12.	=12.	=12.	=12.
0r	2F/	0r	2.A/	[0a
.	2.A/	.	.	.
.	.	.	4B\	.
.	.	.	2c\	.
.	4G/	.	.	.
.	[2F/	.	2d\	.
=13	=13	=13	=13	=13
1r	2F/]	0r	2A/	0a]
.	4E/	.	2.d\	.
.	4D/	.	.	.
1AA	1E	.	.	.
.	.	.	4c#i\	.
.	.	.	2c#i\	.
=14.	=14.	=14.	=14.	=14.
1D	1D	0r	0d	0r
1D	1A	.	.	.
=15	=15	=15	=15	=15
1GG	1d	0r	0r	0r
2r	1d	.	.	.
2G\	.	.	.	.
=16.	=16.	=16.	=16.	=16.
2G\	0G	0r	0r	0r
2.E\	.	.	.	.
4F\	.	.	.	.
[2G\	.	.	.	.
=17	=17	=17	=17	=17
2G\]	2r	0r	0r	0r
4F\	2d\	.	.	.
4E\	.	.	.	.
1D	2d\	.	.	.
.	[2B\	.	.	.
=18.	=18.	=18.	=18.	=18.
2r	4B\]	0r	0r	0r
.	4c\	.	.	.
2G\	1d	.	.	.
1G	.	.	.	.
.	4c\	.	.	.
.	4B\	.	.	.
=19	=19	=19	=19	=19
1F	1A	0r	0r	0r
[1G	1G	.	.	.
=20.	=20.	=20.	=20.	=20.
2G\]	2r	0r	0r	0r
4F\	2d\	.	.	.
4E\	.	.	.	.
2D\	1d	.	.	.
2F\	.	.	.	.
=21	=21	=21	=21	=21
1E	1c	0r	0r	0r
[1D	[1d	.	.	.
=22.	=22.	=22.	=22.	=22.
1D]	2d\]	0r	0r	0r
.	4c\	.	.	.
.	4B\	.	.	.
2r	2A/	.	.	.
2F\	2c\	.	.	.
=23	=23	=23	=23	=23
2G\	1B	0r	0r	0r
2E\	.	.	.	.
2F\	1A	.	.	.
[2D\	.	.	.	.
=24.	=24.	=24.	=24.	=24.
4D\]	2r	0r	0r	0r
4C/	.	.	.	.
4BB/	2c\	.	.	.
4AA/	.	.	.	.
1BB	2d\	.	.	.
.	2B\	.	.	.
=25	=25	=25	=25	=25
0AA	2c\	0A	1r	0r
.	2.A/	.	.	.
.	.	.	1c	.
.	4G/	.	.	.
.	4F/	.	.	.
.	4E/	.	.	.
=26.	=26.	=26.	=26.	=26.
2r	1F	1A	1d	0r
1D	.	.	.	.
.	1E	1A	1e	.
2C/	.	.	.	.
=27	=27	=27	=27	=27
2D\	2r	1A	1f	0a
1F	2D/	.	.	.
.	1D	1A	1f	.
4E\	.	.	.	.
4D\	.	.	.	.
=28.	=28.	=28.	=28.	=28.
1A	1D	1F	1d	1a
1A	1D	1F	1d	1a
=29	=29	=29	=29	=29
0AA	1A	0E	0e	1a
.	2.c\	.	.	1a
.	4B\	.	.	.
=30.	=30.	=30.	=30.	=30.
0r	2A/	1r	1c	1f
.	2G/	.	.	.
.	2F/	[1A	1d	1f
.	4E/	.	.	.
.	4D/	.	.	.
=31	=31	=31	=31	=31
1.AA	1.C	1A]	1e	0e
.	.	1A	2.c\	.
2BB/	2D/	.	.	.
.	.	.	4B\	.
=32.	=32.	=32.	=32.	=32.
2C/	2E/	1A	1A	1r
2.D\	2.F/	.	.	.
.	.	1A	2r	[1a
4E\	4G/	.	.	.
4F\	2A/	.	2c\	.
4G\	.	.	.	.
=33	=33	=33	=33	=33
2A\	2D/	1A	1d	1a]
1D	1F	.	.	.
.	.	1A	1d	1a
4C/	4E/	.	.	.
4BB/	4D/	.	.	.
=34.	=34.	=34.	=34.	=34.
1AA	1C	[0c	0e	1a
1AA	[1E	.	.	1a
=35	=35	=35	=35	=35
1AA	1E]	0c]	[0e	1.cc
[1AA	1E	.	.	.
.	.	.	.	2b\
=36.	=36.	=36.	=36.	=36.
1AA]	1E	0c	0e]	1a
1C	1E	.	.	[1g
=37	=37	=37	=37	=37
0GG	1.G	0B	1.d	1g]
.	.	.	.	[1dd
.	4F/	.	2c\	.
.	4E/	.	.	.
=38.	=38.	=38.	=38.	=38.
1GG	1D	[0d	2B\	2dd\]
.	.	.	2G/	2cc\
[1D	[1F	.	2B\	2b\
.	.	.	2c\	[2a/
=39	=39	=39	=39	=39
1D]	1F]	0d]	1d	2a/]
.	.	.	.	2g/
1D	1F	.	[1A	2f/
.	.	.	.	4e/
.	.	.	.	4d/
=40.	=40.	=40.	=40.	=40.
0AA	2r	[0c	0A]	1e
.	2.A/	.	.	.
.	.	.	.	2r
.	4G/	.	.	.
.	2E/	.	.	[2a/
=41	=41	=41	=41	=41
0r	2F/	0c]	0r	2a/]
.	4E/	.	.	4g/
.	4D/	.	.	4f/
.	1C	.	.	2g/
.	.	.	.	2a/
=42.	=42.	=42.	=42.	=42.
0r	2r	[0c	0r	1e
.	2.A/	.	.	.
.	.	.	.	2r
.	4G/	.	.	.
.	4F/	.	.	[2a/
.	4E/	.	.	.
=43	=43	=43	=43	=43
1r	2F/	0c]	0r	2a/]
.	4E/	.	.	4g/
.	4D/	.	.	4f/
2r	1C	.	.	2g/
2AA/	.	.	.	2a/
=44.	=44.	=44.	=44.	=44.
2BB/	0r	0B	2r	0d
2C/	.	.	2G/	.
[1D	.	.	2B\	.
.	.	.	2c\	.
=45	=45	=45	=45	=45
2D\]	0r	0A	1d	1r
4C/	.	.	.	.
4BB/	.	.	.	.
2AA/	.	.	2e\	2r
2D\	.	.	[2d\	2a/
=46.	=46.	=46.	=46.	=46.
0GG	0D	0G	4d\]	2b\
.	.	.	4c\	.
.	.	.	4B\	2cc\
.	.	.	4A/	.
.	.	.	1B	[1dd
=47	=47	=47	=47	=47
0r	1D	0F	1A	2dd\]
.	.	.	.	4cc\
.	.	.	.	4b\
.	1D	.	2.d\	2a/
.	.	.	.	2dd\
.	.	.	4c\	.
=48.	=48.	=48.	=48.	=48.
1r	1E	1G	2.B\	1g
.	.	.	4A/	.
1GG	2.D/	1B	1G	1dd
.	4E/	.	.	.
=49	=49	=49	=49	=49
1AA	2F/	0A	1c	1cc
.	2E/	.	.	.
1FF	1F	.	1c	1a
=50.	=50.	=50.	=50.	=50.
0GG	[0D	0G	2B\	1b
.	.	.	1d	.
.	.	.	.	2g/
.	.	.	4c\	[2dd\
.	.	.	4B\	.
=51	=51	=51	=51	=51
1r	0D]	1F	1A	2dd\]
.	.	.	.	4cc\
.	.	.	.	4b\
1D	.	1F	1d	2a/
.	.	.	.	2dd\
=52.	=52.	=52.	=52.	=52.
1E	0r	1G	2B\	2g/
.	.	.	2.e\	2.cc\
1C	.	2.c\	.	.
.	.	.	4c\	4b\
.	.	.	2e\	4a/
.	.	4B\	.	4g/
=53	=53	=53	=53	=53
0D	1r	2A/	1d	2f/
.	.	2G/	.	1g
.	2r	1A	2r	.
.	2A/	.	2D/	2f#i/
=54.	=54.	=54.	=54.	=54.
2GG/	2B\	0G	2D/	0g
1C	2c\	.	2.E/	.
.	1d	.	.	.
.	.	.	4D/	.
2BB/	.	.	2D/	.
=55	=55	=55	=55	=55
2.C/	1G	0r	2.E/	1r
4D\	.	.	4F/	.
2E\	2r	.	2G/	2r
2F\	[2d\	.	[2A/	2a/
=56.	=56.	=56.	=56.	=56.
2G\	2d\]	0r	4A/]	2b\
.	.	.	4G/	.
2E\	1c	.	1G	2cc\
1D	.	.	.	1dd
.	2B\	.	2F/	.
=57	=57	=57	=57	=57
2.C/	2c\	0r	0G	2g/
.	2.c\	.	.	1cc
4D\	.	.	.	.
1E	.	.	.	.
.	4B\	.	.	.
.	2G/	.	.	2b\
=58.	=58.	=58.	=58.	=58.
0AA	2A/	0r	0r	2cc\
.	4G/	.	.	2.cc\
.	4F/	.	.	.
.	1E	.	.	.
.	.	.	.	4b\
.	.	.	.	4a/
.	.	.	.	4g/
=59	=59	=59	=59	=59
1r	2D/	0r	0r	2a/
.	1d	.	.	4g/
.	.	.	.	4f/
2r	.	.	.	1e
2AA/	2c#i\	.	.	.
=60.	=60.	=60.	=60.	=60.
2BB/	0d	0r	1r	0d
2C/	.	.	.	.
1D	.	.	2r	.
.	.	.	2A/	.
=61	=61	=61	=61	=61
1GG	0r	0r	2B\	0r
.	.	.	2.d\	.
[1D	.	.	.	.
.	.	.	4c\	.
.	.	.	4B\	.
.	.	.	4A/	.
=62.	=62.	=62.	=62.	=62.
2D\]	0r	0r	2B\	0r
2C/	.	.	1A	.
1BB	.	.	.	.
.	.	.	2G/	.
=63	=63	=63	=63	=63
2AA/	0r	0r	2A/	0r
2.D\	.	.	2F/	.
.	.	.	1E	.
4C#i/	.	.	.	.
2C#i/	.	.	.	.
=64.	=64.	=64.	=64.	=64.
0D	0r	0r	1D	0r
.	.	.	1r	.
=65	=65	=65	=65	=65
0D	0A	0F	0d	0a
=66.	=66.	=66.	=66.	=66.
0AA;	0A;	0E;	0c;	0a;
=67	=67	=67	=67	=67
0AA	0A	0E	0c	0cc
=68.	=68.	=68.	=68.	=68.
0AA	[0A	0E	1.c	1.a
.	.	.	2d\	2f/
=69	=69	=69	=69	=69
0D;	0A;]	0F;	0d;	0f;
=70.	=70.	=70.	=70.	=70.
1D	0A	0F	2.f\	0a
.	.	.	4e\	.
[1AA	.	.	2c\	.
.	.	.	[2d\	.
=71	=71	=71	=71	=71
1AA]	1A	1E	2d\]	1a
.	.	.	2c#i\	.
1D	[1A	[1D	[1d	[1f
=72.	=72.	=72.	=72.	=72.
2r	2A/]	1D]	1d]	2f/]
2D\	4G/	.	.	4e/
.	4F/	.	.	4d/
2C/	2G/	2r	1r	2e/
[2F\	2A/	[2D/	.	2d/
=73	=73	=73	=73	=73
4F\]	1F	2D/]	1r	1f
4E\	.	.	.	.
2D\	.	1F	.	.
1C	2.c\	.	2r	1g
.	.	2E/	[2c\	.
.	4B\	.	.	.
=74.	=74.	=74.	=74.	=74.
0FF	4A/	2F/	2c\]	1a
.	4G/	.	.	.
.	1F	1A	2d\	.
.	.	.	2c\	[1cc
.	4E/	4G/	[2f\	.
.	4D/	4F/	.	.
=75	=75	=75	=75	=75
1C	0C	1G	2f\]	1cc]
.	.	.	2e\	.
[1FF	.	[1F	2.f\	2a/
.	.	.	.	[2cc\
.	.	.	4e\	.
=76.	=76.	=76.	=76.	=76.
1FF]	1r	1F]	2c\	2cc\]
.	.	.	2d\	4b\
.	.	.	.	4a/
1GG	1G	2r	1B	2b\
.	.	2E/	.	2g/
=77	=77	=77	=77	=77
2.FF/	1C	2F/	2.A/	2a/
.	.	1A	.	1cc
4GG/	.	.	4B\	.
2AA/	1F	.	2c\	.
2BB/	.	[2G/	2d\	4b\
.	.	.	.	4a/
=78.	=78.	=78.	=78.	=78.
2C/	2E/	2G/]	2e\	2g/
2FF/	2.A/	1F	2f\	1a
2r	.	.	1c	.
.	4B\	.	.	.
2C/	2c\	2E/	.	2g/
=79	=79	=79	=79	=79
2D\	1F	2F/	0r	2f/
1F	.	2A/	.	4e/
.	.	.	.	4d/
.	2r	1G	.	1c
2E\	[2c\	.	.	.
=80.	=80.	=80.	=80.	=80.
2F\	2c\]	1F	2.c\	0r
2A\	2A/	.	.	.
.	.	.	4d\	.
2G\	2B\	1r	2e\	.
2F\	2A/	.	[2f\	.
=81	=81	=81	=81	=81
1G	1c	1C	2f\]	1r
.	.	.	2e\	.
[1F	[1A	1D	2f\	[1a
.	.	.	4e\	.
.	.	.	4d\	.
=82.	=82.	=82.	=82.	=82.
1F]	1A]	0F	2c\	1a]
.	.	.	2c\	.
1D	1A	.	1d	1f
=83	=83	=83	=83	=83
1C	2r	2E/	2e\	2g/
.	2c\	2G/	1c	2.e/
1D	2A/	1F	.	.
.	.	.	.	4d/
.	2B\	.	2B\	2d/
=84.	=84.	=84.	=84.	=84.
1AA	2A/	2E/	1c	2e/
.	1A	2C/	.	2.a/
1r	.	2D/	1r	.
.	.	.	.	4g/
.	2G/	2E/	.	2e/
=85	=85	=85	=85	=85
1r	1A	1D	1r	2f/
.	.	.	.	4e/
.	.	.	.	4d/
2.AA/	2r	1E	[1e	1c
.	[2c\	.	.	.
4BB/	.	.	.	.
=86.	=86.	=86.	=86.	=86.
2C/	4c\]	0r	2e\]	0r
.	4B\	.	.	.
2D\	1A	.	4d\	.
.	.	.	4c\	.
1E	.	.	2B\	.
.	2G#i/	.	2B\	.
=87	=87	=87	=87	=87
2.AA/	0A	2E/	2.c\	2r
.	.	1E	.	1cc
4BB/	.	.	4d\	.
2C/	.	.	2e\	.
2D\	.	2F/	2d\	2a/
=88.	=88.	=88.	=88.	=88.
2GG/	1r	1G	2B\	2b\
1C	.	.	2.e\	1g
.	2r	1E	.	.
.	.	.	4d\	.
2AA/	[2A/	.	4c\	[2a/
.	.	.	4B\	.
=89	=89	=89	=89	=89
2FF/	2A/]	2F/	2A/	2a/]
2BB-/	2B-\	1D	1d	2f/
2GG/	2B-\	.	.	2g/
[2AA/	4A/	[2A/	4c\	[2e/
.	4G/	.	4B\	.
=90.	=90.	=90.	=90.	=90.
2AA/]	4F/	4A/]	2c\	4e/]
.	4E/	4G/	.	4c/
2.D\	2D/	4F/	2d\	2.f/
.	.	4E/	.	.
.	2F/	1D	2A/	.
4C/	.	.	.	4e/
2BB-i/	2G/	.	2G/	[2d/
=91	=91	=91	=91	=91
1AA	2E/	1E	0A	2d/]
.	2C/	.	.	2c/
[1D	2.F/	1D	.	2d/
.	.	.	.	2a/
.	4G/	.	.	.
=92.	=92.	=92.	=92.	=92.
2D\]	[0A	0F	0d	2.f/
2D\	.	.	.	.
.	.	.	.	4g/
2D\	.	.	.	2a/
2D\	.	.	.	2b\
=93	=93	=93	=93	=93
[0AAl	0A]	[0El	[0cl	0cc
=94.	=94.	=94.	=94.	=94.
0AA]	0Al	0E]	0c]	0ccl
!!LO:LB:i:g=z
=95||	=95||	=95||	=95||	=95||
*>B	*>B	*>B	*>B	*>B
*clefF4	*clefGv2	*clefGv2	*clefGv2	*clefG2
*k[]	*k[]	*k[]	*k[]	*k[]
*M2/1	*M2/1	*M2/1	*M2/1	*M2/1
*met(C2)	*met(C2)	*met(C2)	*met(C2)	*met(C2)
!!section: Qui tollis
!!!OMD: Qui tollis
1D	0r	0A	0r	0r
2D\	.	.	.	.
[2D\	.	.	.	.
=96.	=96.	=96.	=96.	=96.
2D\]	0r	1A	0r	0r
4C/	.	.	.	.
4BB/	.	.	.	.
2AA/	.	[1A	.	.
2D\	.	.	.	.
=97	=97	=97	=97	=97
2C/	0r	2A/]	0r	0r
1F	.	4G/	.	.
.	.	4F/	.	.
.	.	1G	.	.
2E\	.	.	.	.
=98.	=98.	=98.	=98.	=98.
1F	0r	0F	0r	0r
[1A	.	.	.	.
=99	=99	=99	=99	=99
2A\]	0r	1.c	0r	0r
2A\	.	.	.	.
[1A	.	.	.	.
.	.	2c\	.	.
=100.	=100.	=100.	=100.	=100.
2A\]	0r	1c	0r	0r
4G\	.	.	.	.
4F\	.	.	.	.
2G\	.	1B	.	.
2E\	.	.	.	.
=101	=101	=101	=101	=101
1F	0r	2A/	0r	0r
.	.	1c	.	.
2E\	.	.	.	.
[2D\	.	4B\	.	.
.	.	4A/	.	.
=102.	=102.	=102.	=102.	=102.
4D\]	0r	2G/	0r	0r
4C/	.	.	.	.
4BB/	.	1A	.	.
4AA/	.	.	.	.
1BB	.	.	.	.
.	.	2G#i/	.	.
=103	=103	=103	=103	=103
1AA	2r	[0A	0r	0r
.	2E/	.	.	.
2r	2F/	.	.	.
2F\	4E/	.	.	.
.	4D/	.	.	.
=104.	=104.	=104.	=104.	=104.
2E\	2C/	0A_	0r	0r
2.F\	2.D/	.	.	.
4E\	4E/	.	.	.
2D\	4F/	.	.	.
.	4D/	.	.	.
=105	=105	=105	=105	=105
2C/	2E/	0A_	1r	1r
2D\	2F/	.	.	.
1AA	1E	.	1c	1e
=106.	=106.	=106.	=106.	=106.
0r	[0D	0A]	1d	1f
.	.	.	1d	1f
=107	=107	=107	=107	=107
0r	0D]	0r	1.d	1.f
.	.	.	4c\	4e/
.	.	.	4B\	4d/
=108.	=108.	=108.	=108.	=108.
0r	0r	0r	2c\	2e/
.	.	.	2d\	2f/
.	.	.	1A	2e/
.	.	.	.	[2a/
=109	=109	=109	=109	=109
0r	0r	0r	2r	2a/]
.	.	.	1e	4g/
.	.	.	.	4f/
.	.	.	.	2g/
.	.	.	4d\	2a/
.	.	.	4c\	.
=110.	=110.	=110.	=110.	=110.
0r	0r	0r	2d\	2b\
.	.	.	2e\	2cc\
.	.	.	2f\	2a/
.	.	.	2d\	[2b\
=111	=111	=111	=111	=111
0r	1r	0r	2e\	4b\]
.	.	.	.	4a/
.	.	.	2c\	1a
.	2r	.	1B	.
.	2E/	.	.	2g#i/
=112.	=112.	=112.	=112.	=112.
1AA	2.F/	0A	0A	0a
.	4E/	.	.	.
[1D	2D/	.	.	.
.	[2F/	.	.	.
=113	=113	=113	=113	=113
2D\]	2F/]	1A	0r	0r
2C/	2E/	.	.	.
2.F\	2D/	1A	.	.
.	[2F/	.	.	.
4E\	.	.	.	.
=114.	=114.	=114.	=114.	=114.
2D\	2F/]	1A	1r	0r
4C/	4E/	.	.	.
4BB/	4D/	.	.	.
1AA	1E	1c	2r	.
.	.	.	2e\	.
=115	=115	=115	=115	=115
1r	0D	2d\	2.f\	0r
.	.	2A/	.	.
.	.	.	4e\	.
2r	.	1B	2d\	.
[2D\	.	.	[2f\	.
=116.	=116.	=116.	=116.	=116.
2D\]	0r	1A	2f\]	0r
2C/	.	.	2e\	.
1D	.	[1A	2d\	.
.	.	.	[2f\	.
=117	=117	=117	=117	=117
1F	0r	1A]	4f\]	1r
.	.	.	4e\	.
.	.	.	4c\	.
.	.	.	4d\	.
1E	.	1G	1e	2r
.	.	.	.	2b\
=118.	=118.	=118.	=118.	=118.
1AA	1E	0A	2r	2.cc\
.	.	.	2e\	.
.	.	.	.	4b\
2r	1A	.	2f\	2a/
[2A\	.	.	[2c\	[2cc\
=119	=119	=119	=119	=119
2A\]	2F/	0r	4c\]	2cc\]
.	.	.	4d\	.
2G\	2G/	.	2e\	2b\
2F\	2A/	.	1f	2a/
4E\	4G/	.	.	[2cc\
4D\	4F/	.	.	.
=120.	=120.	=120.	=120.	=120.
4C/	0G	0r	1e	2cc\]
4D\	.	.	.	.
4E\	.	.	.	4b\
4F\	.	.	.	4a/
1E	.	.	2r	2b\
.	.	.	2c\	2e/
=121	=121	=121	=121	=121
0r	0r	0r	2A/	2f/
.	.	.	2B\	2g/
.	.	.	2c\	2a/
.	.	.	2d\	2b\
=122.	=122.	=122.	=122.	=122.
2r	2r	0r	1e	1g
2C/	2E/	.	.	.
2D\	2F/	.	1r	1r
2E\	2G/	.	.	.
=123	=123	=123	=123	=123
2F\	2A/	0r	1r	1r
2G\	2B\	.	.	.
1C	1G	.	2r	2r
.	.	.	2c\	2e/
=124.	=124.	=124.	=124.	=124.
0r	0r	0r	2d\	2f/
.	.	.	2e\	2g/
.	.	.	2f\	2a/
.	.	.	2d\	2b\
=125	=125	=125	=125	=125
1.C	[0G	[0c	1e	1g
.	.	.	[1e	[1cc
2C/	.	.	.	.
=126.	=126.	=126.	=126.	=126.
0C	1G]	1c]	2e\]	2cc\]
.	.	.	2e\	2cc\
.	1G	1c	[1e	[1cc
=127	=127	=127	=127	=127
1C	0G	0c	1e]	1cc]
1C	.	.	1e	1cc
=128.	=128.	=128.	=128.	=128.
1AA	1A	1c	1e	1cc
1FF	1A	1A	2.f\	1cc
.	.	.	4e\	.
=129	=129	=129	=129	=129
1GG	1D	0d	2d\	2b\
.	.	.	4c\	2.g/
.	.	.	4B\	.
1D	1D	.	1A	.
.	.	.	.	4f#i/
.	.	.	.	2f#i/
=130.	=130.	=130.	=130.	=130.
1GG	1G	1d	2B\	2g/
.	.	.	2G/	1b
[1D	[1F	1d	2B\	.
.	.	.	[2d\	[2a/
=131	=131	=131	=131	=131
1D]	1F]	0A	2d\]	2a/]
.	.	.	4c\	1dd
.	.	.	4B\	.
1D	1F	.	2A/	.
.	.	.	2d\	4cc\
.	.	.	.	4b\
=132.	=132.	=132.	=132.	=132.
1AA	[0E	2.A/	2.c\	1cc
.	.	4B\	4d\	.
1r	.	2c\	[1e	2cc\
.	.	2G/	.	[2b\
=133	=133	=133	=133	=133
0r	0E]	1c	1e]	2b\]
.	.	.	.	2.a/
.	.	1B	1e	.
.	.	.	.	4g#i/
.	.	.	.	2g#i/
=134.	=134.	=134.	=134.	=134.
0AA	2r	1A	[0c	[0a
.	2A/	.	.	.
.	2.A/	1r	.	.
.	4G/	.	.	.
=135	=135	=135	=135	=135
1AA	2F/	2r	0c]	0a_
.	4E/	2A/	.	.
.	4D/	.	.	.
1AA	1C	2.A/	.	.
.	.	4G/	.	.
=136.	=136.	=136.	=136.	=136.
2r	2r	2F/	1r	0a]
2A\	1F	4E/	.	.
.	.	4D/	.	.
2.A\	.	1C	2r	.
.	2E/	.	2e\	.
4G\	.	.	.	.
=137	=137	=137	=137	=137
2.F\	1D	2D/	2f\	0r
.	.	2F/	2d\	.
8E\L	.	.	.	.
8D\J	.	.	.	.
2C/	[1A	2E/	2e\	.
2D\	.	2D/	[2f\	.
=138.	=138.	=138.	=138.	=138.
0AA	1A]	1F	4f\]	0r
.	.	.	4e\	.
.	.	.	1d	.
.	1A	1E	.	.
.	.	.	2c#i\	.
=139	=139	=139	=139	=139
[0D	2.F/	0D	1d	0r
.	4G/	.	.	.
.	1A	.	1d	.
=140.	=140.	=140.	=140.	=140.
0D]	1r	0r	1.f	0r
.	2.D/	.	.	.
.	.	.	2e\	.
.	4E/	.	.	.
=141	=141	=141	=141	=141
0r	4F/	0r	2d\	0r
.	4G/	.	.	.
.	1A	.	2c\	.
.	.	.	1B	.
.	2G#i/	.	.	.
=142.	=142.	=142.	=142.	=142.
1r	1A	0r	0A	0r
1F	1A	.	.	.
=143	=143	=143	=143	=143
1.A	1.c	0r	0r	0r
2G\	2B\	.	.	.
=144.	=144.	=144.	=144.	=144.
2F\	2A/	1r	0r	0r
2E\	2G/	.	.	.
1D	1F	1A	.	.
=145	=145	=145	=145	=145
1C	[0E	0c	0r	0r
2r	.	.	.	.
2AA/	.	.	.	.
=146.	=146.	=146.	=146.	=146.
1.C	0E]	1A	1r	0r
.	.	1G	2r	.
2BB/	.	.	2G/	.
=147	=147	=147	=147	=147
2AA/	1r	1.c	2A/	1r
2GG/	.	.	2B\	.
1FF	1c	.	2c\	1a
.	.	2B\	2d\	.
=148.	=148.	=148.	=148.	=148.
0C	1c	2A/	2e\	1.cc
.	.	4G/	2f\	.
.	.	4F/	.	.
.	1c	1G	4e\	.
.	.	.	4d\	.
.	.	.	2e\	2b\
=149	=149	=149	=149	=149
0FF	1c	0F	1f	2a/
.	.	.	.	2g/
.	1c	.	[1c	1f
=150.	=150.	=150.	=150.	=150.
0r	[0C	1.G	1c]	2.e/
.	.	.	.	4f/
.	.	.	1c	4g/
.	.	.	.	4a/
.	.	2G/	.	[2g/
=151	=151	=151	=151	=151
0r	0C]	2E/	0c	2g/]
.	.	2F/	.	1f
.	.	1G	.	.
.	.	.	.	2e/
=152.	=152.	=152.	=152.	=152.
1r	1r	1F	1r	1f
[1C	[1E	[1G	[1c	[1e
=153	=153	=153	=153	=153
2C/]	2E/]	1G]	2c\]	2e/]
2C/	2E/	.	2c\	2e/
[1C	1E	1G	2.c\	2.e/
.	.	.	4d\	4f/
=154.	=154.	=154.	=154.	=154.
1C]	2E/	1G	2e\	2g/
.	2.G/	.	2e\	2g/
1C	.	[1G	2c\	2e/
.	4F/	.	.	.
.	4E/	.	[2e\	[2g/
.	4D/	.	.	.
=155	=155	=155	=155	=155
1C	1C	1G]	4e\]	4g/]
.	.	.	4d\	4f/
.	.	.	1c	1e
1GG	1D	1G	.	.
.	.	.	2B\	2d/
=156.	=156.	=156.	=156.	=156.
2.C/	2C/	2.E/	0c	1e
.	2.G/	.	.	.
4D\	.	4F/	.	.
2E\	.	2G/	.	1r
.	4F/	.	.	.
2F\	4E/	[2A/	.	.
.	4D/	.	.	.
=157	=157	=157	=157	=157
2E\	2C/	2A/]	0r	0r
2C/	1c	1G	.	.
1D	.	.	.	.
.	2B\	2F/	.	.
=158.	=158.	=158.	=158.	=158.
0C	0c	0G	2r	2r
.	.	.	2e\	2g/
.	.	.	2e\	2g/
.	.	.	2c\	2e/
=159	=159	=159	=159	=159
0r	0r	0r	1d	2.f/
.	.	.	.	4g/
.	.	.	1c	1e
=160.	=160.	=160.	=160.	=160.
2r	2.c\	2r	0r	0r
2F\	.	2A/	.	.
.	4A/	.	.	.
2E\	2B\	2G/	.	.
2C/	2c\	2E/	.	.
=161	=161	=161	=161	=161
2D\	2A/	2F/	0r	2r
2F\	2F/	2D/	.	2a/
2E\	2G/	2E/	.	2g/
2C/	2c\	2G/	.	2e/
=162.	=162.	=162.	=162.	=162.
2.D\	2A/	2F/	2r	2.f/
.	2B\	2D/	2f\	.
4C/	.	.	.	4e/
1AA	1c	1E	2e\	2c/
.	.	.	[2c\	2a/
=163	=163	=163	=163	=163
1r	1r	0r	4c\]	2g/
.	.	.	4B\	.
.	.	.	2G/	2e/
2r	2r	.	2A/	1f
2D\	2F/	.	2B\	.
=164.	=164.	=164.	=164.	=164.
2C/	2G/	0r	1c	1e
2AA/	1A	.	.	.
1BB	.	.	1r	1r
.	2G/	.	.	.
=165	=165	=165	=165	=165
1AA	1A	2r	1r	2r
.	.	2A/	.	2cc\
1r	1E	2G/	2r	2b\
.	.	2E/	2e\	2g/
=166.	=166.	=166.	=166.	=166.
0r	0r	2.F/	2c\	2.a/
.	.	.	2.d\	.
.	.	4E/	.	4g/
.	.	2C/	.	2e/
.	.	.	4c\	.
.	.	2E/	[2c\	2g/
=167	=167	=167	=167	=167
0r	0r	1D	2c\]	1f
.	.	.	2B\	.
.	.	1C	1c	1e
=168.	=168.	=168.	=168.	=168.
0AA	1.A	2r	1.c	1r
.	.	1E	.	.
.	.	.	.	[1a
.	2A/	2E/	2c\	.
=169	=169	=169	=169	=169
1AA	1A	0E	1c	2a/]
.	.	.	.	2a/
[1AA	[1A	.	1c	[1a
=170.	=170.	=170.	=170.	=170.
1AA]	2A/]	1E	2c\	1a]
.	4G/	.	2.e\	.
.	4F/	.	.	.
1AA	1E	1C	.	1a
.	.	.	4d\	.
.	.	.	4c\	.
.	.	.	4B\	.
=171	=171	=171	=171	=171
0FF	1F	2C/	[0A	0cc
.	.	1F	.	.
.	1C	.	.	.
.	.	4E/	.	.
.	.	4D/	.	.
=172.	=172.	=172.	=172.	=172.
0FF	1F	1C	0A]	0cc
.	1C	1F	.	.
=173	=173	=173	=173	=173
[0GG	[0G	[0D	2r	1b
.	.	.	2d\	.
.	.	.	2d\	2b\
.	.	.	[2d\	[2g/
=174.	=174.	=174.	=174.	=174.
0GG]	0G_	0D]	4d\]	2g/]
.	.	.	4c\	.
.	.	.	4B\	4f/
.	.	.	4A/	4e/
.	.	.	1B	2d/
.	.	.	.	[2g/
=175	=175	=175	=175	=175
0C	0G]	1E	0c	2g/]
.	.	.	.	1e
.	.	[1G	.	.
.	.	.	.	2cc\
=176.	=176.	=176.	=176.	=176.
0D	0r	2G/]	1r	2b\
.	.	4F/	.	1a
.	.	4E/	.	.
.	.	1F	1A	.
.	.	.	.	4g/
.	.	.	.	4f/
=177	=177	=177	=177	=177
1C	0r	1G	1c	2e/
.	.	.	.	2.g/
1BB	.	1G	2.d\	.
.	.	.	.	4f/
.	.	.	.	4e/
.	.	.	4e\	4d/
=178.	=178.	=178.	=178.	=178.
[0AA	0r	0A	2f\	1c
.	.	.	2.e\	.
.	.	.	.	2r
.	.	.	4d\	.
.	.	.	4c\	2c/
.	.	.	4B\	.
=179	=179	=179	=179	=179
0AA]	0r	1E	[0A	4c/
.	.	.	.	4d/
.	.	.	.	4e/
.	.	.	.	8d/L
.	.	.	.	8e/J
.	.	2.A/	.	2f/
.	.	.	.	[2e/
.	.	4G/	.	.
=180.	=180.	=180.	=180.	=180.
*M3/1	*M3/1	*	*	*
*met(3)	*met(3)	*	*	*
!!primary-mensuration: met(3)
*	*	*rscale:2/3	*rscale:2/3	*rscale:2/3
1r	1r	2.F/	0.A]	2.e/]
.	.	2.D/	.	1.d
1r	1r	.	.	.
.	.	1.E	.	.
1AA	1C	.	.	.
.	.	.	.	2.c#i/
*	*	*rscale:1	*rscale:1	*rscale:1
=181	=181	=181	=181	=181
*	*	*M3/1	*M3/1	*M3/1
*	*	*met(3)	*met(3)	*met(3)
1.D	1.F	0.D	0.r	0.d
2E\	2G/	.	.	.
1F	1A	.	.	.
=182.	=182.	=182.	=182.	=182.
1G	1B-i	1r	1r	1r
1F	1A	1r	1r	1r
1D	1F	1D	1A	1d
=183	=183	=183	=183	=183
0.C	0.E	0G	0c	1.e
.	.	.	.	2f/
.	.	1G	1c	1g
=184.	=184.	=184.	=184.	=184.
1r	1r	1F	1c	1a
1r	1r	0E	0c	1g
1AA	1C	.	.	1e
=185	=185	=185	=185	=185
1.D	1.F	0.D	0.d	0.f
2E\	2G/	.	.	.
1F	1A	.	.	.
=186.	=186.	=186.	=186.	=186.
1G	1B-i	1r	1r	1r
1F	1A	1r	1r	1r
1D	1F	1D	1A	1d
=187	=187	=187	=187	=187
0.C	0.E	0G	0c	1.e
.	.	.	.	2f/
.	.	1E	1c	1g
=188.	=188.	=188.	=188.	=188.
1r	1r	1F	1c	1a
1r	1r	0E	0c	1g
1AA	1C	.	.	1e
=189	=189	=189	=189	=189
1.D	1.F	1.D	[0.d	1.f
2D\	2F/	2E/	.	2g/
1D	1F	1F	.	1a
=190.	=190.	=190.	=190.	=190.
1GG	1D	1G	0d]	1b
1D	0D	1F	.	1a
1GG	.	1G	1d	1b
=191	=191	=191	=191	=191
0C	1.C	0.E	0e	1g
.	.	.	.	1.cc
.	2D/	.	.	.
1AA	1E	.	[1c	.
.	.	.	.	2b\
=192.	=192.	=192.	=192.	=192.
1FF	1F	1r	1c]	1.a
0C	0G	1r	0c	.
.	.	.	.	2g/
.	.	1E	.	1g
=193	=193	=193	=193	=193
0FF	1.F	1F	1c	0.a
.	.	1D	1d	.
.	2G/	.	.	.
1C	1A	1E	1c	.
=194.	=194.	=194.	=194.	=194.
1D	1F	1.F	[0.A	1r
1F	0c	.	.	1r
.	.	2E/	.	.
1E	.	1C	.	1e
=195	=195	=195	=195	=195
1.D	2F/	2D/	0A]	1f
.	2G/	2E/	.	.
.	2A/	2F/	.	1d
2C/	2B-i\	2G/	.	.
1C	1G	1E	1r	1e
=196.	=196.	=196.	=196.	=196.
1D	1F	1D	0.r	1.f
0AA	0A	1F	.	.
.	.	.	.	2e/
.	.	1E	.	1c
=197	=197	=197	=197	=197
0.r	0A	0D	0.r	2d/
.	.	.	.	2e/
.	.	.	.	2f/
.	.	.	.	2d/
.	1r	1C	.	1e
=198.	=198.	=198.	=198.	=198.
0.r	1.A	1D	1r	1.d
.	.	0E	1r	.
.	2F/	.	.	2c/
.	1G	.	1e	1c
=199	=199	=199	=199	=199
1.BB-	1F	0D	1f	1d
.	0B-	.	1d	1f
2AA/	.	.	.	.
1GG	.	1r	1e	1g
=200.	=200.	=200.	=200.	=200.
1.FF	1.A	0.r	1.f	1.a
2GG/	2G/	.	2e\	2b\
1AA	1E	.	1c	2cc\
.	.	.	.	2a/
=201	=201	=201	=201	=201
1GG	1G	0D	2d\	1b
.	.	.	2e\	.
1FF	1A	.	2f\	1.a
.	.	.	2d\	.
1C	1E	1C	1e	.
.	.	.	.	2g/
=202.	=202.	=202.	=202.	=202.
1BB	1r	1D	1.d	1g
0AA	0A	0E	.	0a
.	.	.	2c#i\	.
.	.	.	1c#i	.
=203	=203	=203	=203	=203
0D	0A	1D	1d	1f
.	.	1F	1A	1d
1D	[1A	1D	1d	1f
=204.	=204.	=204.	=204.	=204.
0.AA;	1A]	0.E;	0.c#i;	0.e;
.	0A	.	.	.
=205	=205	=205	=205	=205
*^	*	*	*	*
[y0.DDl\	[y0.Dl/	[0.Al	[0.Dl	0.d	[0.fl
=206.	=206.	=206.	=206.	=206.	=206.
0.DD]yy	0.D]yy	0.A]	0.D]	0.dl	0.f]
*v	*v	*	*	*	*
==	==	==	==	==
*-	*-	*-	*-	*-
!!!RDF**kern: l=long note in original notation
!!!RDF**kern: i=editorial accidental
!!!ENC:	Chris Gage 05-23-2011
!!!END:	2013/08/03/
!!!EED:	Jesse Rodin
!!!EEV:	2013/12/30/
!!!ONB:	Translated from MusicXML and edited on 2013/12/30/ by Craig Sapp
!!muse2ps: T^@{OPR}^u^@{ONM}{. }@{OTL}^C^@{COM}^i2I150v85,85,85,85,130Q16
